icons/plsql-dark.svg

<svg width="256" height="256" viewBox="0 0 256 256" fill="none" xmlns="http://www.w3.org/2000/svg">
<path d="M196 0H60C26.8629 0 0 26.8629 0 60V196C0 229.137 26.8629 256 60 256H196C229.137 256 256 229.137 256 196V60C256 26.8629 229.137 0 196 0Z" fill="#282828"/>
<g clip-path="url(#clip0_0_1)">
<path d="M97.7917 73.9028C77.6528 73.9028 61.3334 71.0889 61.3334 67.6174V135.507C61.3334 138.979 77.6528 141.793 97.7917 141.793C117.931 141.793 134.25 138.978 134.25 135.507V67.6195C134.25 71.091 117.931 73.9028 97.7917 73.9028Z" fill="#B9CED9"/>
<path d="M61.3334 67.6194V135.507C61.3334 138.979 77.6528 141.793 97.7917 141.793V73.9028C77.6563 73.9028 61.3334 71.091 61.3334 67.6194Z" fill="#A1BDCC"/>
<path d="M129.222 70.8069V138.694C132.416 137.76 134.25 136.671 134.25 135.508V67.6194C134.25 68.7826 132.417 69.875 129.222 70.8069Z" fill="#A1BDCC"/>
<path d="M97.7917 73.9056C117.927 73.9056 134.25 71.0912 134.25 67.6195C134.25 64.1477 117.927 61.3333 97.7917 61.3333C77.6563 61.3333 61.3334 64.1477 61.3334 67.6195C61.3334 71.0912 77.6563 73.9056 97.7917 73.9056Z" fill="#8AADBF"/>
<path d="M61.3334 110.361C61.3334 113.833 77.6528 116.647 97.7917 116.647C117.931 116.647 134.25 113.833 134.25 110.361V115.39C134.25 118.862 117.931 121.676 97.7917 121.676C77.6528 121.676 61.3334 118.864 61.3334 115.392V110.361Z" fill="#789EB2"/>
<path d="M134.25 87.734C134.25 91.2063 117.931 94.0202 97.7917 94.0202C77.6528 94.0202 61.3334 91.2056 61.3334 87.734V92.7632C61.3334 96.2354 77.6528 99.0486 97.7917 99.0486C117.931 99.0486 134.25 96.2347 134.25 92.7632V87.734Z" fill="#789EB2"/>
<path d="M186.333 107.167H115.5C110.898 107.167 107.167 110.898 107.167 115.5V186.333C107.167 190.936 110.898 194.667 115.5 194.667H186.333C190.936 194.667 194.667 190.936 194.667 186.333V115.5C194.667 110.898 190.936 107.167 186.333 107.167Z" fill="#F80000"/>
<path d="M129.627 134.239H142.187C148.56 134.239 151.053 138.118 151.053 144.215C151.053 148.001 149.946 154.006 141.772 154.006H136.6V167.583H129.627V134.239ZM136.6 148.878H140.479C142.557 148.878 143.988 146.615 143.988 144.399C143.988 141.674 143.25 139.365 140.11 139.365H136.6V148.878Z" fill="white"/>
<path d="M155.765 167.583V134.239H162.738V162.04H173.174V167.583H155.765Z" fill="white"/>
</g>
<defs>
<clipPath id="clip0_0_1">
<rect width="200" height="200" fill="white" transform="translate(28 28)"/>
</clipPath>
</defs>
</svg>

<svg xmlns="http://www.w3.org/2000/svg" width="256" height="256" fill="none"><path fill="#282828" d="M196 0H60C26.863 0 0 26.863 0 60v136c0 33.137 26.863 60 60 60h136c33.137 0 60-26.863 60-60V60c0-33.137-26.863-60-60-60"/><g clip-path="url(#clip0_0_1)"><path fill="#B9CED9" d="M97.792 73.903c-20.14 0-36.459-2.814-36.459-6.286v67.89c0 3.472 16.32 6.286 36.459 6.286s36.458-2.815 36.458-6.286V67.62c0 3.471-16.319 6.283-36.458 6.283"/><path fill="#A1BDCC" d="M61.333 67.62v67.887c0 3.472 16.32 6.286 36.459 6.286v-67.89c-20.136 0-36.459-2.812-36.459-6.284m67.889 3.188v67.887c3.194-.934 5.028-2.023 5.028-3.186V67.619c0 1.164-1.833 2.256-5.028 3.188"/><path fill="#8AADBF" d="M97.792 73.906c20.135 0 36.458-2.815 36.458-6.287s-16.323-6.286-36.458-6.286c-20.136 0-36.459 2.815-36.459 6.287s16.323 6.286 36.459 6.286"/><path fill="#789EB2" d="M61.333 110.361c0 3.472 16.32 6.286 36.459 6.286s36.458-2.814 36.458-6.286v5.029c0 3.472-16.319 6.286-36.458 6.286-20.14 0-36.459-2.812-36.459-6.284zm72.917-22.627c0 3.472-16.319 6.286-36.458 6.286-20.14 0-36.459-2.814-36.459-6.286v5.03c0 3.471 16.32 6.285 36.459 6.285s36.458-2.814 36.458-6.286z"/><path fill="#F80000" d="M186.333 107.167H115.5a8.333 8.333 0 0 0-8.333 8.333v70.833a8.333 8.333 0 0 0 8.333 8.334h70.833a8.334 8.334 0 0 0 8.334-8.334V115.5a8.333 8.333 0 0 0-8.334-8.333"/><path fill="#fff" d="M129.627 134.239h12.56c6.373 0 8.866 3.879 8.866 9.976 0 3.786-1.107 9.791-9.281 9.791H136.6v13.577h-6.973zm6.973 14.639h3.879c2.078 0 3.509-2.263 3.509-4.479 0-2.725-.738-5.034-3.878-5.034h-3.51zm19.165 18.705v-33.344h6.973v27.801h10.436v5.543z"/></g><defs><clipPath id="clip0_0_1"><path fill="#fff" d="M28 28h200v200H28z"/></clipPath></defs></svg>
